X:1
T:[ID 4-11v]
T:[ID 4-11v]
T:Bezeichnung standardisiert: Menuett Menuetto Nro 1. In dieser Quelle auch als: Menuet
T:Urheber unbekannt Erstbeleg: 1767 (Datum in der schriftlichen Quelle) Datum in der hier transkribierten schriftlichen Quelle: 1776 - 1791
C:Urheber unbekannt
C:Erstbeleg: 1767 (Datum in der schriftlichen Quelle)
C:Datum in der hier transkribierten schriftlichen Quelle: 1776 - 1791
L:1/8
M:3/4
K:D
V:1 treble nm="Viol. Primo"
V:1
 d4 A2 | F>DF>A d2 | B2 g2 e2 |{d} Tc4 d2 | (3f3/2g/a .a.a.a.a | (3e3/2f/g .g.g.g.g | (fa) g2 f2 | %7
{f} e6 :: A3 Ac>e | .g2 .e2 .c2 | A3 Ad>f | .a2 .f2 .d2 | (3g3/2a/b .b.b.b.b | (3f3/2g/a .a.a.a.a | %14
 fgfeec |{e} d6 :|[M:3/4]"^Trio"!p! !fermata!FG A2 A2 | (3Bcd{B} A4 | A2 (AG)(GF) | EF G4 | %20
 FG A2 A2 | (3Bcd{B} A4 | G2 G2 F2 |{F} E6 :: CD E2 E2 | (3EFG F4 | B2 (3BAG (3FED | (3CB,A, A,4 | %28
 FG A2 A2 | (3Bcd{B} A4 | G2 F2 E2 |{E} D6 :| %32

